src/img/logo-black.svg

<svg width="106" height="32" viewBox="0 0 106 32" fill="none" xmlns="http://www.w3.org/2000/svg">
<path d="M0.0761719 8.00879H5.39765V14.0388H11.2125V8.00879H16.5575V25.2409H11.2125V18.2704H5.39765V25.2409H0.0761719V8.00879Z" fill="black"/>
<path d="M18.39 12.7576H23.4413L26.014 21.068L28.3987 12.7576H33.1093L28.1637 26.0989C27.5998 27.6192 27.0242 28.6457 26.4369 29.1786C25.6067 29.9309 24.342 30.307 22.6425 30.307C21.9534 30.307 20.8883 30.213 19.4473 30.0249L19.0714 26.6867C19.7606 26.9061 20.528 27.0158 21.3738 27.0158C21.9377 27.0158 22.3919 26.8865 22.7365 26.6279C23.0889 26.3693 23.3865 25.9069 23.6293 25.2409L18.39 12.7576Z" fill="black"/>
<path d="M34.5072 29.9897V12.7576H38.9829V14.6031C39.6016 13.8273 40.1693 13.3022 40.6862 13.028C41.3832 12.6596 42.1546 12.4755 43.0004 12.4755C44.6685 12.4755 45.9568 13.1142 46.8652 14.3915C47.7815 15.6688 48.2397 17.2478 48.2397 19.1285C48.2397 21.2051 47.7424 22.792 46.7478 23.8891C45.7532 24.9783 44.4962 25.523 42.9769 25.523C42.2408 25.523 41.5673 25.3976 40.9564 25.1468C40.3534 24.8961 39.813 24.5238 39.3353 24.0301V29.9897H34.5072ZM39.3001 19.0345C39.3001 20.0219 39.5076 20.7546 39.9227 21.2326C40.3377 21.7106 40.8624 21.9496 41.4968 21.9496C42.0528 21.9496 42.5188 21.7223 42.8947 21.2678C43.2706 20.8055 43.4586 20.0258 43.4586 18.9287C43.4586 17.9178 43.2628 17.1773 42.8712 16.7071C42.4796 16.2291 42.0019 15.9901 41.438 15.9901C40.8272 15.9901 40.3181 16.2291 39.9109 16.7071C39.5037 17.1851 39.3001 17.9609 39.3001 19.0345Z" fill="black"/>
<path d="M64.3803 20.1864H54.7946C54.8807 20.9544 55.0883 21.5264 55.4172 21.9026C55.8793 22.4433 56.4823 22.7136 57.2263 22.7136C57.6962 22.7136 58.1426 22.5961 58.5654 22.361C58.8239 22.2121 59.1019 21.9496 59.3995 21.5735L64.1101 22.0084C63.3896 23.2622 62.5203 24.1634 61.5022 24.7119C60.4842 25.2526 59.0236 25.523 57.1205 25.523C55.4681 25.523 54.1681 25.2918 53.2205 24.8294C52.2729 24.3593 51.4858 23.6187 50.8593 22.6079C50.2406 21.5891 49.9313 20.3941 49.9313 19.0227C49.9313 17.0715 50.5539 15.4925 51.7991 14.2857C53.0521 13.0789 54.7789 12.4755 56.9796 12.4755C58.7652 12.4755 60.1748 12.7458 61.2086 13.2865C62.2423 13.8273 63.0294 14.6109 63.5698 15.6374C64.1101 16.664 64.3803 18.0001 64.3803 19.6457V20.1864ZM59.517 17.8943C59.423 16.9696 59.1724 16.3075 58.7652 15.9078C58.3657 15.5081 57.8371 15.3083 57.1793 15.3083C56.4196 15.3083 55.8127 15.61 55.3585 16.2134C55.0687 16.5896 54.8847 17.1499 54.8063 17.8943H59.517Z" fill="black"/>
<path d="M66.624 12.7576H71.0997V14.8029C71.5304 13.9174 71.9729 13.3101 72.4271 12.9809C72.8892 12.644 73.457 12.4755 74.1305 12.4755C74.8353 12.4755 75.6067 12.6949 76.4447 13.1337L74.9645 16.5425C74.4007 16.3075 73.9543 16.1899 73.6254 16.1899C72.9988 16.1899 72.5133 16.4485 72.1687 16.9657C71.6753 17.6945 71.4286 19.058 71.4286 21.0563V25.2409H66.624V12.7576Z" fill="black"/>
<path d="M94.17 31.3687C92.1268 30.8879 90.6113 29.9633 89.0448 28.2619C86.9504 25.9873 86.082 23.6942 86.082 20.4765C86.082 17.2773 86.9504 15.0027 89.0618 12.6911C91.1562 10.3795 93.3868 9.38093 96.3836 9.39942C98.7504 9.41791 100.828 10.2316 102.735 11.8774C103.535 12.5617 105.153 14.6513 105.153 15.0212C105.153 15.1321 101.747 17.2403 101.543 17.2403C101.492 17.2403 101.236 16.9074 100.981 16.5191C100.317 15.465 98.9718 14.5219 97.6096 14.1705C96.605 13.8931 96.2814 13.8931 95.3109 14.0781C93.1654 14.5034 91.3946 16.0383 90.6965 18.091C90.2197 19.4594 90.2197 21.4936 90.6965 22.8621C91.4116 24.9517 93.523 26.7085 95.6174 26.9674C97.5415 27.2078 100.044 26.0243 101.015 24.4155L101.441 23.7312L102.156 24.1751C102.53 24.4155 103.365 24.9333 103.995 25.3401L105.136 26.0613L104.574 26.9674C102.462 30.3701 97.9501 32.2748 94.17 31.3687Z" fill="black"/>
<path d="M87.2734 2.21859V0.260254H96.2128H105.152V2.21859V4.17692H96.2128H87.2734V2.21859Z" fill="black"/>
</svg>

<svg xmlns="http://www.w3.org/2000/svg" fill="none" viewBox="0 0 106 32"><path fill="#000" d="M.076 8.009h5.322v6.03h5.815v-6.03h5.345V25.24h-5.345v-6.97H5.397v6.97H.076V8.009zM18.39 12.758h5.051l2.573 8.31 2.385-8.31h4.71l-4.945 13.34c-.564 1.521-1.14 2.548-1.727 3.08-.83.753-2.095 1.129-3.795 1.129-.689 0-1.754-.094-3.195-.282l-.376-3.338c.69.22 1.457.329 2.303.329.564 0 1.018-.13 1.363-.388.352-.259.65-.721.892-1.387L18.39 12.758zM34.507 29.99V12.758h4.476v1.845c.619-.776 1.186-1.3 1.703-1.575A4.875 4.875 0 0 1 43 12.475c1.669 0 2.957.64 3.865 1.917.916 1.277 1.375 2.856 1.375 4.736 0 2.077-.498 3.664-1.492 4.761-.995 1.09-2.252 1.634-3.771 1.634-.736 0-1.41-.125-2.02-.376a4.813 4.813 0 0 1-1.622-1.117v5.96h-4.828zM39.3 19.035c0 .987.208 1.72.623 2.198.415.478.94.717 1.574.717.556 0 1.022-.228 1.398-.682.376-.463.564-1.242.564-2.34 0-1.01-.196-1.75-.588-2.22-.391-.479-.87-.718-1.433-.718-.61 0-1.12.24-1.527.717-.407.478-.61 1.254-.61 2.328zM64.38 20.186h-9.585c.086.768.293 1.34.622 1.717.462.54 1.065.81 1.81.81.47 0 .916-.117 1.338-.352.259-.149.537-.411.835-.788l4.71.435c-.72 1.254-1.59 2.155-2.608 2.704-1.018.54-2.478.811-4.382.811-1.652 0-2.952-.231-3.9-.694-.947-.47-1.734-1.21-2.36-2.221-.62-1.019-.929-2.214-.929-3.585 0-1.951.623-3.53 1.868-4.737 1.253-1.207 2.98-1.81 5.18-1.81 1.786 0 3.196.27 4.23.81a5.476 5.476 0 0 1 2.36 2.351c.541 1.027.811 2.363.811 4.009v.54zm-4.863-2.292c-.094-.924-.345-1.586-.752-1.986-.4-.4-.928-.6-1.586-.6-.76 0-1.366.302-1.82.905-.29.377-.474.937-.553 1.681h4.711zM66.624 12.758H71.1v2.045c.43-.886.873-1.493 1.327-1.822.462-.337 1.03-.505 1.703-.505.705 0 1.477.219 2.315.658l-1.48 3.409c-.564-.235-1.01-.353-1.34-.353-.626 0-1.112.258-1.456.776-.494.729-.74 2.092-.74 4.09v4.185h-4.805V12.758zM94.17 31.369c-2.043-.481-3.559-1.406-5.125-3.107-2.095-2.275-2.963-4.568-2.963-7.785 0-3.2.868-5.474 2.98-7.786 2.094-2.312 4.325-3.31 7.322-3.292 2.366.019 4.444.833 6.351 2.478.8.685 2.418 2.774 2.418 3.144 0 .111-3.406 2.22-3.61 2.22-.051 0-.307-.334-.562-.722-.664-1.054-2.01-1.997-3.371-2.348-1.005-.278-1.329-.278-2.3-.093-2.145.425-3.915 1.96-4.614 4.013-.476 1.368-.476 3.403 0 4.771.716 2.09 2.827 3.847 4.921 4.105 1.924.24 4.427-.943 5.398-2.551l.426-.685.715.444c.374.24 1.209.758 1.839 1.165l1.141.721-.562.906c-2.112 3.403-6.624 5.308-10.404 4.402zM87.273 2.219V.26H105.152v3.917H87.273V2.219z"/></svg>
